X: 13061
T: Banoks of Bear Meal
N: In the index, it's spelled "Bannoks ...".
%R: air, waltz, minuet
B: James Oswald "The Caledonian Pocket Companion" v.1 b.3 p.6 #1
S: https://ia800501.us.archive.org/18/items/caledonianpocket01rugg/caledonianpocket01rugg_bw.pdf
Z: 2020 John Chambers <jc:trillian.mit.edu>
M: 3/4
L: 1/8
K: G
%%slurgraces 1
%%graceslurs 1
|: "_Slow"\
G2G2B2 | A2A2e2 | G2(GA)(Bc) | d4g2 ::\
(gf)(ed)(cB) | A2a2gf | g2d2B2 | g3a (g/a/b) |\
e2(ge)(dB) | d2(Ac)(BA) | (GF)(GA)(Bc) | d4g2 :|
|: "_Variation"\
G2B2d2 | A2c2e2 | dedB(TAG) | g3a {ga}b2 |\
(gfg)dcB | Aagfed | egdeBd | (gfg)abg |\
aegdeB | d2A2B2 |
(GF)(GA)(Bc) | d4g2 ::\
GbG(BAG) | FAD(cBA) | GbFaEg | D2(f2g2) ::\
Ggd(BAG) | FAD(c'ba) | bgd(BAG) | g3a {ga}b2 |
ec'c(edc) | dd'D(cBA) | GbFaEg | D2(f2g2) ::\
(GB/c/) dBgB | Ag (f/g/a) (g/a/b) | GBAcBe | d4g2 :|
|:\
(e/f/g) dBgB | Ag (f/g/a) df | (e/f/g) dBgB | GgdBgB |\
("*1"e/f/e/d/ c/d/c/B/ A/B/A/G/) | (F/G/F/E/) D4 | (GF)(GA)(Bc) | d4g2 :|
%%text *1 This "slur" is squiggly, whatever that meant.


